!!!OTL-incipit: EIN SCHWEINHIRT DER HUET BEI DEM KORN
!!!ARE: Europa, Mitteleuropa, Deutschland
!!!SCT: Z0195
!!!YEM: Copyright 1995, estate of Helmut Schaffrath.
**kern	**text
*ICvox	*
*M3/8	*
*k[b-e-]	*
*g:	*
!LO:TX:a:t=Altdeutſch.	!
{8dd	Ein
=1	=1
4dd	Schweinhirt
8cc	.
=2	=2
4cc	der
8b-	hüt'
=3	=3
4b-/	bei
8a	dem
=4	=4
4b-/}	Korn,
{8b-/	der
=5	=5
4b-/	darf
8a	wohl
=6	=6
4a	hü-
8g	-ten
=7	=7
8g	hin-
8f#	-ten
8g	und
=8	=8
4g}	vorn.
{8dd	Ein
=9	=9
4dd	Roß-
8ff	-hirt
=10	=10
4ff	bei
8dd	ein'm
=11	=11
4ee-	Ha-
8cc	-ber-
=12	=12
8cc	-ak-
8cc}	-ker,
{8cc	muß
=13	=13
4dd	all-
8b-	-ʒeit
=14	=14
4a	mun-
8g	-ter
=15	=15
8f#L	ſeyn
8gJ	.
8a	und
=16	=16
8d	wak-
8d}	-ker,
{8dd	muß
=17	=17
4dd	all-
8dd	-ʒeit
=18	=18
4gg	mun-
8g	-ter
=19	=19
4g}	ſeyn
{8cc	und
=20	=20
4.b-	wak-
=21	=21
4.a	.
=22	=22
4g}	-ker.
==	==
!!!AGN: Hirten -, Handwerker - Lied
!!!ONB: ESAC (Essen Associative Code) Database: ZUCCAL
!!!AMT: simple triple
!!!AIN: vox
!!!EED: Helmut Schaffrath
!!!EEV: 1.0
!!!GTL: III. Soldaten-, Jaeger-, Schiffer-, Fuhrmanns- und Handwerks-Lieder.
!!!URL-scan: https://www.digitale-sammlungen.de/de/view/bsb11160571?page=363
!!!ENC: Anna Maria Matuszewska
!!!EEV: 2025/01/28
*-	*-
